svgs/thin/square-arrow-down-left.svg

<svg xmlns="http://www.w3.org/2000/svg" viewBox="0 0 448 512"><!-- Font Awesome Pro 6.0.0-alpha2 by @fontawesome - https://fontawesome.com License - https://fontawesome.com/license (Commercial License) --><path d="M317.658 173.656C320.775 170.539 320.785 165.469 317.658 162.344C314.533 159.215 309.461 159.227 306.346 162.344L143.998 324.688V184C143.998 179.578 140.418 176 136 176C131.576 176 128 179.578 128 184V344C128 348.422 131.58 352 136 352H296C300.42 352 304 348.422 304 344C304 339.582 300.42 336 296 336H155.312L317.658 173.656ZM448 416V96C448 60.652 419.348 32 384 32H64C28.652 32 0 60.652 0 96V416C0 451.344 28.652 480 64 480H384C419.348 480 448 451.344 448 416ZM432 416C432 442.469 410.469 464 384 464H64C37.531 464 16 442.469 16 416V96C16 69.531 37.531 48 64 48H384C410.469 48 432 69.531 432 96V416Z"/></svg>

<svg xmlns="http://www.w3.org/2000/svg" viewBox="0 0 448 512"><!--! Font Awesome Pro 6.0.0-alpha3 by @fontawesome - https://fontawesome.com License - https://fontawesome.com/license (Commercial License) --><path d="M317.7 173.7c3.117-3.117 3.127-8.188 0-11.31c-3.125-3.129-8.197-3.117-11.31 0L143.1 324.7V184c0-4.422-3.58-8-7.998-8C131.6 176 128 179.6 128 184v160C128 348.4 131.6 352 136 352h160c4.42 0 8-3.578 8-8c0-4.418-3.58-8-8-8H155.3L317.7 173.7zM448 416V96c0-35.35-28.65-64-64-64H64C28.65 32 0 60.65 0 96v320c0 35.34 28.65 64 64 64h320C419.3 480 448 451.3 448 416zM432 416c0 26.47-21.53 48-48 48H64c-26.47 0-48-21.53-48-48V96c0-26.47 21.53-48 48-48h320c26.47 0 48 21.53 48 48V416z"/></svg>
